X: 84
T: Zhai Mianhua
L: 1/8
M: 2/4
K: F
A c c c/ d/ [I:setbarnb 1]| 
c G G c | 
c c/ G/ c c/ G/ | 
F F D C | 
GG2A/ G/ | 
F F D C | 
c> G c3/ G/ | 
F> F D C | 
G G/ A< c f/ | 
A G/ A/ G D | 
C4 |]

@@@ Tune index: 8958
